X:1
T:Symphony No. 2 in D Major
T:Symphony No. 2 in D Major
T:4th Movement
T:Ludwig van Beethoven
T:Arr. for piano by Franz Liszt
C:Ludwig van Beethoven
Z:Arr. for piano by Franz Liszt
%%score { ( 1 3 6 ) | ( 2 4 5 ) }
L:1/8
Q:1/2=152
M:2/2
K:D
V:1 treble nm="Piano" snm="Pno."
V:3 treble 
V:6 treble 
V:2 bass 
V:4 bass 
V:5 bass 
V:1
"^Allegro molto."!f! !^![ff'] | .[gg']2 z C TC3!f! B,/C/ | .E2 .A,2 z2!p! .A.A | %3
 (dA).f.f (eA).g.g | (fA).a.a (ag).f.e | (ed).d.d (dc).B.c |!f! .[Fd]2 .[EAce]2 z2 z!ff! !^![ff'] | %7
 .[gg']2 z C TC3!ff! B,/C/ | .E2 .A,2 z2!p! .A.A | (dA).f.f (eA).g.g | (fA).a.a (ag).f.e | %11
 (ed).d.d (dc).B.c |!f! d2 z [cc'] [dd']2 z!f! .D | .[DE]2 .[DF]2 .[DG]2 .[D^E]2 | %14
 .[DF]2 z !^![cc'] .[dd']2 z!f! .[DF] | .[DG]2 .[DA]2 .[DB]2 .[Cc]2 | %16
 .[Dd]2!f! [dd']c' .[dd']2 Dd | EeFf Gg^E^e | .[Ff]2!f! [dd']c' .[dd']2 [Fd]f | %19
 [Fd]g[Fd]f [Fd]g[^Gd]g |!ff! [Ac]a[ce]a [eg]c'[eg]a | [df]d'[df]a [d=f]d'[df]^g | %22
 [ce]b[ce]a [ceg]c'[ceg]a | [df]d'[df]a [d=f]d'[df]^g | [cea]2 [A,A]2 [A,A]2 [A,A]2 | %25
 [A,A]2 z2 z4 | z8 |!p! A8 | [DFA]8 | A8 |!p! A4 G2 F2 | [Dd]8 | d2 c2 B2 A2 | e4 f2 ^g2 | %34
 a2 x2 x4 | [Ee]4 f2 ^g2 | a2 x2 x4 | [CAc]2 [B,GB]2 [FA]2 [EG]2 |!p! [DFd]4 [EAe]2 [Fdf]2 | %39
 [Geg]6 [Geg]2 | [Geg]2 [Fdf]2 [EAe]2 [DAd]2 | [eg]6 x2 |"_cresc." [dfd']2 [ee']2 [ff']2 [ee']2 | %43
 [dd']2 [c^ac']2 [Bfb]2 [Af=a]2 |!f! [^Ge^g]2 G2 B2 e2 | [e^g]6 g2 | a2 A2 ^d2 f2 | [fa]6 a2 | %48
 b2 B2 B!f!BbB | c'2 c2 c!f!cc'c | [bd']d^gb d'!f!bd'b |!>(! ^gbge dedB!>)! |!p! x2 .e2 .c2 .e2 | %53
 z2 .[ce]2 .[Ac]2 .[ce]2 | e8 | e'8 | .[ac']2 x2 x4 | z2 .[ce]2 .[Ac]2 .[ce]2 | e8 | e'8 | %60
 .[ac']2!p! .e2"_cresc." .c2 .e2 | z2 .[cf]2 .^A2 .[cf]2 | z2 .[df]2 .B2!mf! .[df]2 | %63
[Q:1/4=250]"_ten." z2[Q:1/4=304] .[ea]2!mf! .c2!>(! .[ea]2 | z2 .[fa]2 .d2 [fa]2-!>)! | %65
!mp! [fa]4 [df]3 [Bd] | .[Ac]2!p! .[ce]2 .[Ac]2 .[ce]2 | z2 .[Be]2 .[^GB]2 .[Be]2 | [ee']8 | %69
 [=c=c']4 [Aa]4 | e2 z2 z4 | e'8 | .[a=c']2!<(! x2 x4 | z2 .[=ce]2 .[Ac]2!<)!!mf! .[ce]2 | %74
[Q:1/4=250]"_ten."!f! z2[Q:1/4=304]!mf! .[dg]2 .d2 .[dg]2 | z2!mf! .[dg]2 .B2 .[dg]2 | %76
!>(! z2 .[eg]2 .=c2 .[eg]2!>)! |!p! =f4 g2 a2 | =c8 | B8 | [ee']8 | [dd']4 [ee']2 [=f=f']2 | %82
 [Aa]8 | [^G^g]8 |!f! [Ae]!mf!E[Ae]E[Ae]E[Ae]E | [Ac]E[Ac]E[Ac]E AE | [ABf]F[ABf]F[ABf]F[ABf]F | %87
 [Ad]F[Ad]F[Ad]F [AB]F | [Ace]!f!E[Ace]E [Ac]EAE | [^GBe]!f!E[GBe]E [GB]EGE | %90
!f! [EAe]2 z2 [eae']4 | !^![eac']6 .[Aea]2 | [Afa]4 [ff']4 | !^![dfad']6 .[Afa]2 | %94
!ff! [Aga]4 [gg']4 | .[ee']2 .[Aa]2 .[cc']2 .[ee']2 | .[gg']2 .[ee']2 .[cc']2 .[Aa]2 | %97
 .[Ae]2 .[Aa]2 .[cc']2 .[ee']2 | .[gg']2!p! z (f .g2) z (^d | .e2) z (^B .c2) z (^G | %100
 .A2) z (F .G2) z (^D | .E2) z (^B, .C2) z (^G, | .A,2) z!p! (f"_dim." .g2) z (^d | %103
 .e2) z (^B .c2) z (^G | .A2) z!pp! (^B .c2) z (^d | .e2) z (f .g2) z (f | %106
 .g2) z"_cresc." (f .g2) z (f | .g2) z (f .g2) z!f! ([ff'] | .[gg']2) z C TC3!f! B,/C/ | %109
 .E2 .A,2 z2!p! AA | (dA).f.f (eA).g.g | (fA).a.a (ag).f.e | (ed).d.d (dc).B.c | %113
!f! .[Fd]2 .[EAce]2 z2 z!ff! ([ff'] | .[gg']2) z C TC3!ff! B,/C/ | .E2 .A,2 z2!p! AA | %116
 (dA).=f.f (eA).g.g | (=fA).a.a (ag).f.e | (ed).d.d (dc).B.c |!f! [D=Fd]2 z =f Tf3!f! e/f/ | %120
 .[Ada]2 .[=FAd]2 [d=fad']4 | .[cg_bc']2 z g Tg3!f! ^f/g/ | .[_B_b]2 .[Bc]2 [cegbc']4 | %123
!f! .[d=fad']2 z f Tf3!f! e/f/ | .[Ada]2 .[=FAd]2 .[d=fad']2 .[dfad']2 | %125
 .[cg_bc']2 z g Tg3!f! ^f/g/ | .[_B_b]2 .[Bc]2 .[cegbc']2 .[cegbc']2 | %127
 .[Aa]2 .[Ad]2 .[d=fad']2 .[dfad']2 | .[_B_b]2 .[Bc]2 .[cegbc']2 .[cegbc']2 | %129
 .[Aa]2 .[Ad]2 .[d=fad']2 .[dfad']2 | .[_B_b]2 .[Bc]2 .[cegbc']2 .[cegbc']2 | %131
!f! .[d=fad']2!p! x2 !>!d4- | d8- | d2!p! .g.g (=fd).g.g | (_e=c).g.g (dB).g.g | %135
 [=c_e]2!p! z2 !>!c4- | c8- | c2!p! .=f.f (_e=c).f.f | (d_B).=f.f (=cA).f.f | %139
!f! .d2 z D"^" TD/4_E/4D/4E/4D/4E/4D/4E/4D/4E/4D/4E/4!f! C/D/ | .=F2!f! .[Dd]2 .[F=f]2 .[_B,_B]2 | %141
!f! .[D=Fd]2 z D TD3!f! C/D/ | .=F2 .[Dd]2 .[F=f]2 z2 |!p! .[=F=cd]2 z2 z2 .[=f=c'd']2 | %144
 .[=fb=f']2 .[bd'g']2 z2 .[GBd]2 | %145
!f! .[E=ce]2 z E"^" TE/4=F/4E/4F/4E/4F/4E/4F/4E/4F/4E/4F/4!f! D/E/ | %146
 .G2!f! .[Ee]2 .[Gg]2 .[=C=c]2 |!f! .[EGBe]2 z E TE3!f! ^D/E/ | .G2!f! .[Ee]2 .[Gg]2 z2 | %149
!p! .[Gde]2 z2 z2 .[gd'e']2 | .[gc'g']2 .[cea]2 z2 .[cea]2 | %151
 .[d=fd']2"_cresc." .[df]2 z2 .[dfd']2 | .[^d^f^d']2 .[dfb]2 z2 .[dfd']2 | %153
 .[ege']2 .[eg]2 z2 .[egb]2 | .[^e^gd']2 .[egb]2 z2 .[egb]2 | [fa]A^g^G fF^e^E | %156
 fF^g^G [fa]A[fb]B |!f! ^e2 x2 x4 | [cc']2 [dd']2 [cc']2 [=B=b]2 | [Aa]2 [^G^g]2 [Ff]2 [^E^e]2 | %160
 [Ff]2 [Dd]2 [Cc]2 [^B,^B]2 |!ff! CcCc Cc^B,^B | CcDd CcB,B | %163
 A,A^G,^G[I:staff +1] F,[I:staff -1]F[I:staff +1]^E,[I:staff -1]^E | %164
[I:staff +1] F,[I:staff -1]F x2 x4 | .A,2 z ([^E^e] .[Ff]2) z (A, | .B,2) z ([^E^e] .[Ff]2) z (B, | %167
 .C2) z ([^E^e] .[Ff]2) z (C | .D2) !^!F4 F2 | .C2 [cc']4 af | c4 T^g4 | %171
 .f2 z!ff! ([^e^e'] .[ff']2) z (A, | .B,2) z ([^e^e'] .[ff']2) z (B, | %173
 .C2) z ([^e^e'] .[ff']2) z [CF] | .[DF]2 z [DF] .[^B,F]2 z [B,F] | %175
 .[CF]2 z!ff! ([^e^e'] .[ff']2) z [CF] | .[DF]2 z [DF] .[^B,F]2 z [B,F] | %177
!ff! .[CF]2 z [CFc] .[DFd]2 z [^B,F^B] | .[CFc]2 z [Fcf] .[Fdf]2 z [F^Bf] | %179
 .[Fcf]2 [Ff]4 !>![Afa]2- | [Afa]2!8va(! !>![ff']4 !>![af'a']2- | %181
 [af'a']2!8va)! z!pp! (^e .f2) z2 | z8 | z2 z f .g2 z2 | z4 z2 z!f! ([ff'] | %185
 .[gg']2) z C TC3!f! B,/C/ | .E2 .A,2 z2!p! .A.A | (dA).f.f (eA).g.g | (fA).a.a (ag).f.e | %189
 (ed).d.d (dc).B.c |!f! .[Fd]2 .[EAce]2 z2 z!ff! !^![ff'] | .[gg']2 z C TC3!ff! B,/C/ | %192
 .E2 .A,2 z2!p! .A.A | (dA).f.f (eA).g.g | (fA).a.a (ag).f.e | (ed).d.d (dc).B.c | %196
!f! d2 z [cc'] [dd']2 z .D | .[DE]2 .[DF]2 .[DG]2 .[D^E]2 | .[DF]2 z !^![cc'] .[dd']2 z!f! .[DF] | %199
 .[DG]2 .[DA]2 .[DB]2 .[Cc]2 | .[Dd]2!f! [dd']c' .[dd']2 Dd | EeFf Gg^E^e | %202
 .[Ff]2!f! [dd']c' .[dd']2 [Fd]f | [Fd]g[Fd]f [Fd]g[^Gd]g |!ff! [Ac]a[ce]a [eg]c'[eg]a | %205
 [df]d'[df]a [d=f]d'[df]^g | [ce]b[ce]a [ceg]c'[ceg]a | [df]d'[df]a [d=f]d'[df]^g | %208
 [cea]2 [A,A]2 [A,A]2 [A,A]2 | [A,A]2 z2 z4 | z8 |!p! A8 | [DFA]8 | A8 |!p! A4 G2 F2 | [Dd]8 | %216
 d2 c2 B2 A2 | e4 f2 ^g2 | a2 x2 x4 | [Ee]4 f2 ^g2 | a6 =g2 | f2 e2 d4- | [Bd]2 [Gg]2 [Aa]2 [Bb]2 | %223
 [=ca=c']6 [cac']2 | [=c=c']2 [Bb]2 [Aa]2 [Gg]2 | [=ca=c']6 [cac']2 | %226
"_cresc." [Bb]2 [=c=c']2 [Bb]2 [A^da]2 | [Geg]2 [F^df]2 [Ge]2 [B=de]2 | [Ace]2!f! C2 E2 A2 | %229
 [Ac]!f!ECE Ac[ac']c | [dbd']2 D2 ^G2 B2 | [Bd]!f!^GDG Bd[bd']d | [c'e']e[ce]G [ce]!f!e[c'e']e | %233
 [d'f']f[df]A [df]!f!f[d'f']f |!f! [e'g']gc'e' g'!f!e'c'a | gecA GAGE | %236
 D2!p! .[FA]2 .[DF]2 .[FA]2 | z2 .[FA]2 .[DF]2 .[FA]2 | a8 | z2 !^!e'!p!d' c'bac' | %240
 .d'2 .[FA]2 .[DF]2 .[FA]2 | z2 .[FA]2 .[DF]2 .[FA]2 | a8 | z2 !^!e'!p!d' c'bac' | %244
 .d'2 .[df]2 .[FA]2 .[df]2 | z2 .[cf]2 .[F^A]2 .[cf]2 | z2 .[df]2 .[FB]2 .[df]2 | %247
 z2!>(! .[ea]2 .c2 .[ea]2 | z2 .[fa]2 .d2 .[fa]2!>)! |!p! a4 g2 e2 | e4 d4- | d4 e3 c | %252
 [D=Fd]2 .[d=f]2 .[FA]2 .[df]2 | z2 .[d=f]2 .[=FA]2 .[df]2 | a8 | z2 !^!e'!p!d' c'bac' | %256
!p! .d'2"_cresc." .[=FA]2 .[DF]2 .[FA]2 | z2 .[=FA]2 .[DF]2 .[FA]2 | z2!mf! .[G=c]2 .E2 .G2 | %259
 !^!=c8 | =c8 |!p! _B4 =c2 d2 | =F8 | [Aa]8 |"_cresc." [Aa]8 | [Gg]4 [Aa]2 [_B_b]2 | !^!d8 | c8 | %268
!mf! [Ad]a[Ad]a [Ad]a[Ad]a | !^!FfFf Ff Dd | [Bd]b[Bd]b [Bd]b[Bd]b | !^!GgGgGg Ee | %272
 [Adfa]4 [Af]2 [Ad]2!f! | [Acea]4 [Ae]2 [Ac]2!f! |!mf! [da]b[da]b [da]b[da]b | %275
 !^![df]d'[df]d' [df]d'dd' | [db]d'[db]d' [db]d'[db]d' | !^![dg]d'[dg]d' [dg]d'[db]d' | %278
 [=cd][=c'd'][cd][c'd'] [cd][c'd'][cd][c'd'] | [=cd][=c'd'][cd][c'd'] [cd][c'd'][cd][c'd'] | %280
 [=cd][=c'd'][cd][c'd'] [cd][c'd'][cd][c'd'] | [=cd][=c'd'][cd][c'd'] [cd][c'd'][cd][c'd'] | %282
 [=cd]2 z!p! (b .=c'2) z (^g | .a2) z (^e .f2) z (^c | .d2) z (B .=c2) z (^G | %285
"_dim." .A2) z (^E .F2) z (A | .=c2) z!pp! (^c .d2) z (^e | .f2) z (^g .a2) z (b | %288
 .=c'2) z (b .c'2) z (b | .=c'2) z (b .c'2) z (b | .=c'2) z F TF3 E/F/ | A2 .D2 z2 z (^c' | %292
 .d'2) z G TG3 F/G/ | B2 .D2 z2 z!f! ([ff'] | .[gg']2) z C TC3!f! B,/C/ | .E2 .A,2 z2!p! .A.A | %296
 (dA).f.f (eA).g.g | (fA).a.a (ag).f.e | (ed).d.d (dc).B.c |!f! .[Fd]2 .[EAce]2 z2 z ([ff'] | %300
 .[gg']2) z C TC3!f! B,/C/ | .E2 .A,2 z2 z!f! ([ff'] | .[gg']2) z D TD3!f! C/D/ | %303
 .G2 ._B,2 z2 z ([Ff] | .[Gg]2) x4 z ([Ff] | .[Gg]2) x4 z ([Ff] | .[Gg]2) x4 x2 | %307
 !^![Gg]2 z2 !^![Gg]2 x2 | !^![Gg]2 x2 !^![=F=f]2 x2 | [ff']2 [ee']2 [dd']2 [=c=c']2 | %310
 [_Bd_b]6 [Aa]2 | d4 x4 | A2 z2!p! B,2 C2 | D6 D2 | [CAc]4!p! [DBd]2 [Ece]2 | [=Fd=f]6 [Fdf]2 | %316
 [Ece]4!p! [DBd]2 [CAc]2 | [d^gbd']4!p! [ec'e']2 [=fd'=f']2 | [Ece]4!p! [DBd]2 [CAc]2 | %319
 [d^gbd']4!p! [ec'e']2 [=fd'=f']2 |!p! [ec'e']2 [ce]a"_cresc." [Bd]=g[Bd]g | %321
 [Ad]f[Ad]f [Gc]e[Gc]e | [DFAd]2 z2[K:bass]!p! E,2 F,2 | G,6 G,2 | %324
[K:treble] [F,DF]4!p! [G,EG]2 [A,FA]2 | [_B,G_B]6 [B,GB]2 | [F,DF]4!mf! [G,EG]2 [F,DF]2 | %327
 [F_Bce]4!mf! [Fdf]2 [Geg]2 | [F,DF]4!mf! [G,EG]2 [F,DF]2 | [F_Bce]4!mf! [Fdf]2 [Geg]2 | %330
!f! [Fdf]2!mf! [DF]d [DG]d [DA]d | [DB]d[EB]e !>![Ae]E[Ge]E | [Ec]e[Fc]f !>![Bf]F[Af]F | %333
 [Fd]f[Gd]g !>![cg]G[Bg]G |!ff! [GAeg]8- | !fermata![GAeg]8 | [F,CF]8- | !fermata![F,CF]8 | %338
 z2 .[^A,C]2 z2 .[A,C]2 | z2 .[B,D]2 z2 .[^A,E]2 | z2 .[DF]2 z2 .[^DF]2 | z2 .[EG]2 z2 .[^DA]2 | %342
 z2 .[GB]2 z2 .[^GB]2 | x2 .[EA]2 z2 .[D^G]2 | !arpeggio![E=Gce]4 [Fdf]4 | [Geg]4 [Ece]4 | %346
 z2 z (^e .f2) z (e | .f2) z (^e .f2) z (e | .f2) z (^a .b2) z (a | .b2) z (^a .b2) z (a | %350
 .b2) z (^d .e2) z (d | .e2) z (^d .e2) z (d | .e2) z (^g .a2) z (g | .a2) z (^g .a2) z (g | %354
 .a2) z (c' .d'2)!pp! z (c' |!<(! .d'2) z (c' .d'2) z (c' | .d'2) z (c' .d'2) z (c' | %357
 .d'2) z (c' .d'2) z c'!<)! |!mp! .[bd']2 z2!>(! [D-Fd-]4 | [Dd]8 | [Dd]4 [dd']4 | [dd']8!>)! | %362
!pp! [dbd']8 | [dfd']8 | [dgd']8 | [dad']8 |!pp! bd'bd'bd'bd' | bd'bd'bd'bd' | bd'bd'bd'bd' | %369
 dgdgdgdg | BdBdBdBd | GBGBGBGB |!ff! !^![_B,D=F_B]8- | [B,DFB]8 | [A,^FA]DF^G Adf^g | %375
 .[Aa]2!8va(!!<(! bc' d'e'f'=g'!<)! | !^![aa']!ff!f'd'^g!8va)! afd^G | .A2 .=G.F .E.D.C.B, | %378
 [A,A]CE^G Ace^g | .[Aa]2!<(!!8va(! bc' d'e'f'=g'!<)! | !^![aa']!ff!e'c'^g!8va)! aec^G | %381
 .A.=G.F.E .D.C.B,.A, |!f! .D2 z ([cc']"_cresc." .[dd']2) z (F | .G2) z ([cc'] .[dd']2) z (^G | %384
 .A2) z (([cc'] .[dd']2)) z (_B | .=B2) z ([cc'] .[dd']2) z2 |!ff! x8 | x8 | x8 | x8 | %390
 z DG^c ddgc' | !^![dd']=c'_ba g=fed | !^![^fa]!ff!A[fa]A [da]fed | !^![eg]G[eg]G [cg]edc | x8 | %395
 x8 | x8 | x8 | z ^DF^A B^df^a | !^![Bb]=agf e^dcB |!8va(! [eg]e'[eg]e' [gb]g'[gb]g' | %401
 [df]d'[df]d' [ce]c'[ce]c' | .[dfd']2!p! z ([^g^g'] .[aa']2)!8va)! z f | Tf3 e/f/ .a2 .[FAd]2 | %404
 .[EAc]2 z!8va(! ([^g^g'] .[aa']2)!8va)! z c | Tc3 B/c/ .e2 .[EA]2 | %406
 .[Fd]2 z!8va(! ([^g^g'] .[aa']2)!8va)! z f | Tf3 e/f/ .a2 .[FAd]2 | %408
 .[EAc]2 z!8va(! ([^g^g'] .[aa']2)!8va)! z c | Tc3 B/c/ .e2 z!8va(! ([^g^g'] | %410
 .[aa']2)!8va)!"_cresc." g/f/e/f/ .[Aa]2 z!8va(! ([^g^g'] | %411
 .[aa']2)!8va)! d/c/B/c/ .[Ee]2 z!8va(! ([^g^g'] | %412
 .[aa']2)!8va)! =g/f/e/f/ .[Aa]2 z!8va(! ([^g^g'] | .[aa']2)!8va)! d/c/B/c/ .[Ee]2 A2 | %414
!f! .[Fd]2 z2!ff! [Ff]4- | [Ff]8 | F8- | F8- | F2 z (^e .f2) z2 | z8 |!pp! g8- | g8- | %422
 g2 z!pp! (f .g2) z2 | z4 z2 z!ff! ([cc'] | .[dd']2) z F TF3!ff! E/F/ | .A2 .D2 z2 z ([cc'] | %426
 .[dd']2) z A TA3!ff! ^G/A/ | .d2 .F2 z2 z ([cc'] |!ff! .[dd']2) .d2 .f2 .A2 | %429
 .[dd']2 .f2 .a2 .d2 | .[dd']2 .[Aa]2 .[dd']2 .[Aa]2 | .[dd']2 .[Aa]2 .[dd']2 .[Aa]2 | %432
 [dd']2 [ec'e']2 [fd'f']2 [ec'e']2 | [fd'f']2 [ec'e']2 [fd'f']2 [ec'e']2 | .[fd'f']2 c'b agfe | %435
 .d2 cB AGFE | .D2 z2 !^![F,DF]4 | !^![A,DA]4 !^![F,DF]4 | .[D,D]2 z2 z4 | %439
!fff! [dfad']2 z2 [dfad']2 z2 | [dfad']2 z2 z4 | [FAdf]2 z2 z4 |[Q:1/4=80] [D,D]2 z2 !fermata!z4 |] %443
V:2
 F | .G2 z C,!ped! TC,3!ped-up! B,,/C,/ | .[E,,E,]2 .[A,,,A,,]2 z2[K:treble] G2 | F4 C4 | %4
 x2 F2 G4 | F4 E4 |[K:bass] .[D,D]2 .[A,,A,]2 z2 z F | .G2 z C,!ped! TC,3!ped-up! B,,/C,/ | %8
 .[E,,E,]2 .[A,,,A,,]2 z2[K:treble] G2 | F4 C4 | x2 F2 G4 | F4[K:bass] [A,,A,]4 | %12
!ped! [D,,D,]2 z C!ped-up! D2 z .[F,,F,] | .[G,,G,]2 .[A,,A,]2 .[B,,B,]2 .[^G,,^G,]2 | %14
!ped! .[A,,D,A,]2 z C!ped-up! .D2 z .[A,,A,] | .[B,,B,]2 .[F,,F,]2 .[G,,G,]2 .[E,,E,]2 | %16
!ped! .[D,,D,]2 DC!ped-up! .D2 .[F,,F,]2 | .[G,,D,G,]2 .[A,,D,A,]2 .[B,,D,B,]2 .[^G,,D,^G,]2 | %18
!ped! .[A,,D,A,]2 DC .D2 .[=C,=C]2!ped-up! | .[B,,B,]2 .[=C,=C]2 .[B,,B,]2 .[_B,,_B,]2 | %20
!ped! .[A,,A,]2 [CE]2 [A,EG]2 [A,EG]2!ped-up! | %21
!ped! [A,DF]2 [A,DF]2!ped-up!!ped! [A,D=F]2 [A,DF]2!ped-up! | %22
!ped! [A,CE]2 [A,CE]2 [A,,A,]2 [EG]2!ped-up! | %23
!ped! [A,,A,]2 [DF]2!ped-up!!ped! [A,,A,]2 [D=F]2!ped-up! | %24
!ped! [A,CE]2 [A,,,A,,]2 [A,,,A,,]2 [A,,,A,,]2!ped-up! | [A,,,A,,]2 z2 z4 |!p! (D,4 E,2) F,2 | %27
 G,6 G,2 | (G,2 F,2) E,2 D,2 | G,6 G,2 |!p! F,4 E,2 D,2 | ^G,4 F,2 E,2 | A,4 B,2 C2 | D6 [DE]2 | %34
!p! E8 | D6!p! [DE]2 | E4 [A,,C,A,]4 | [B,,D,A,]4 [C,E,A,]4 | D,2 F,2 B,2 D2 | A,6 A,2 | %40
 A,2 D2 A,2 F,2 | A,6 A,2 |"_cresc." A,2 F4 ^A,2 | B,2 C2 D2 ^D2 |!ped! E2!ff! x2 x4!ped-up! | %45
 x2 .^G,2 .B,2 .E2 |!ped! [F,A,^D]2 x2 x4!ped-up! | x2 .F,2 .A,2 .^D2 |!ped! .=D2 z2 x4!ped-up! | %49
!ped! .[E,A,C]2 z2 .[E,,E,]2 .[E,A,C]2!ped-up! |!ped! .[E,^G,B,D]2 z2 z4!ped-up! | z8 | %52
!ped!{/A,,} E8 | C4 A,4!ped-up! |!ped! .^G,2 .E2 .[B,D]2 .E2!ped-up! | %55
!ped! z2 .E2 .[B,D]2 .E2!ped-up! |!ped!{/A,,} E8 | C4 A,4!ped-up! | %58
!ped! .^G,2 .E2 .[B,D]2 .E2!ped-up! |!ped! z2 .E2 .[B,D]2 .E2!ped-up! |!ped!{/A,,} E8!ped-up! | %61
!ped! z2 .^A,2 .C2 .A,2!ped-up! |!ped! z2 .B,2 .D2 .B,2!ped-up! |!ped! z2!mf! .C2 .E2 .C2!ped-up! | %64
!ped! .F2 .D2 .F2 .D2!ped-up! | z2 .F2 .D2 .F2 | x4 [CE]4- | [CE]4 [B,D]3 [^G,B,] | %68
!ped! .A,2 .E2 .[A,=C]2 .E2 | z2 .E2 .[A,=C]2 .E2!ped-up! |!ped! z2 .E2 .[B,D]2 .E2!ped-up! | %71
!ped! z2!p! .E2 .[B,D]2 .E2!ped-up! |!ped!{/A,,} E8- | E4!ped-up! D2 =C2 | %74
!ped! .[G,B,]2 z2 z4!ped-up! |!ped! .[=F,B,D]2 z2 z4!ped-up! |!ped! .[E,=C]2 z2!ped-up! =F2 E2 | %77
 D4 E2 =F2 | z2 .E,2 .G,2 .E,2 | z2 .D,2 .=F,2 .D,2 |!ped! z2 .E2"^cresc." .[A,=C]2 .E2!ped-up! | %81
!ped! z2 .D2 .[=F,_B,]2 .D2!ped-up! |!ped! z2 .=C2 .[E,A,]2 .C2!ped-up! | %83
!ped! z2 .B,2 .[E,^G,]2 .B,2!ped-up! |!ped! .[C,,C,]2!f! .[E,,E,]2 .[A,,A,]2 .[C,C]2!ped-up! | %85
!ped! [E,A,C]6!f! .[C,,C,]2!ped-up! |!ped! .[D,,D,]2 .[F,,F,]2 .[A,,A,]2 .[D,D]2!ped-up! | %87
!ped! [F,A,D]6!f! [D,,D,]2!ped-up! |!ped! [E,,E,]2 .[E,A,C]2 z2 .[E,A,C]2!ped-up! | %89
!ped! [D,,D,]2 .[D,^G,B,]2 z2 .[D,G,B,]2!ped-up! |!ff!!ped! C,,C,E,,E,A,,A,C,C!ped-up! | %91
!ped! [E,A,]!f!E[E,A,]E[E,A,]E!ped-up! C,,C, |!ff!!ped! D,,D,F,,F,A,,A,D,D!ped-up! | %93
!ped! [F,A,]!f!F[F,A,]F[F,A,]F!ped-up! ^D,,^D, |!ped! E,,E,G,,G,C,CE,E | %95
 .[G,G]2 .[E,E]2 .[C,C]2 .[G,,G,]2 | .[E,,E,]2 .[G,,G,]2 .[C,C]2 .[E,E]2 | %97
 .[G,G]2 .[E,E]2 .[C,C]2 .[G,,G,]2!ped-up! | E,2 .G,2 .C2 .E2 | .G2 .E2 .C2 .G,2 | %100
 .E,2 .G,2 .C2 .E2 | .G2 .E2 .C2 .G,2 | .E,2 .G,2 .C2 .E2 | .G2 .E2 .C2 .G,2 | .E,2 z2 z4 | z8 | %106
 z8 | z4 z2 z (F | .G2) z C, TC,3 B,,/C,/ | .[E,,E,]2 .[A,,,A,,]2 z2[K:treble] G2 | F4 C4 | %111
 x2 F2 G4 | F4 F4 |[K:bass] .[D,D]2 .[A,,A,]2 z2 z (F | .G2) z C, TC,3 B,,/C,/ | %115
 .[E,,E,]2 .[A,,,A,,]2 z2[K:treble] G2 | =F4 C4 | x2 =F2 G4 | =F4[K:bass] [A,,A,]4 | %119
!ped! [D,,D,]2 .[=F,A,D]2 .[A,D=F]2 .[F,A,D]2!ped-up! | .[A,D=F]2 .[=F,A,D]2 [D,,D,]4 | %121
!ped! [D,,D,]2 [G,_B,E]2 [B,G]2 [G,B,E]2!ped-up! | [_B,EG]2 [G,B,E]2 [D,,D,]4 | %123
!ped! [D,,D,]2 .[=F,A,D]2 .[A,D=F]2 .[F,A,D]2!ped-up! | .[A,D=F]2 .[=F,A,D]2 .[D,,D,]2 .[D,,D,]2 | %125
!ped! [D,,D,]2 [G,_B,E]2 [B,G]2 [G,B,E]2!ped-up! | .[_B,EG]2 .[G,B,E]2 .[D,,D,]2 .[D,,D,]2 | %127
!ped! .[A,D=F]2 .[=F,A,D]2!ped-up! .[D,,D,]2 .[D,,D,]2 | %128
!ped! .[_B,EG]2 .[G,B,E]2!ped-up! .[D,,D,]2 .[D,,D,]2 | %129
!ped! .[A,D=F]2 .[=F,A,D]2!ped-up! .[D,,D,]2 .[D,,D,]2 | %130
!ped! .[_B,EG]2 .[G,B,E]2 .[D,,D,]2 .[D,,D,]2!ped-up! | !arpeggio!.[D,,D,]2 z2 =C4 | _B,4 F,4 | %133
 G,2 z2 =B,4 | =C4 =F4 | _E2 z2 _B,4 | A,4 E,4 | =F,2 z2 =A,4 | _B,4 _E4 | %139
 .[_B,,,_B,,]2 z D, D,/4_E,/4D,/4E,/4D,/4E,/4D,/4E,/4D,/4E,/4D,/4E,/4 C,/D,/ | %140
 .[=F,,=F,]2 .[_B,,,_B,,]2 z4 | .[A,,,A,,]2 z D, TD,3 C,/D,/ | %142
 .[=F,,=F,]2 .[A,,,A,,]2 z2 .[A,,A,]2 |!ped! .[_A,,_A,]2 .D2 .=F2 .A,2!ped-up! | %144
!ped! .[G,,G,]2 .D2 .=F2 .G,2!ped-up! | %145
 .[=C,,=C,]2 z E, E,/4=F,/4E,/4F,/4E,/4F,/4E,/4F,/4E,/4F,/4E,/4F,/4 D,/E,/ | %146
 .[G,,G,]2 .[=C,,=C,]2 z4 | .[B,,,B,,]2 z E, TE,3 ^D,/E,/ | .[G,,G,]2 .[B,,,B,,]2 z2 .[B,,B,]2 | %149
 .[_B,,_B,]2 .E2 .G2 .B,2 | .[A,,A,]2 .E2 .G2 .A,2 | .D,2 x2 x4 | .B,,2 x2 x4 | .E,2 x2 x4 | %154
 .C,2 x2 x4 |!ped! .F,,2 .[F,A,]2 .[A,C]2 .[F,A,]2!ped-up! | %156
!ped! .[D,,D,]2 .[F,A,]2 .D2 .D,2!ped-up! |!ped! .[C,,C,]2 !>![C,C]4 [^B,,^B,]2!ped-up! | %158
 [C,C]2 [D,D]2 [C,C]2 [=B,,=B,]2 | [A,,A,]2 [^G,,^G,]2 [F,,F,]2 [^E,,^E,]2 | %160
 [F,,F,]2 [D,,D,]2 [C,,C,]2 [^B,,,^B,,]2 |!ped! C,,4 z2!ped-up! ^B,,,2 | C,,2 D,,2 C,,2 B,,,2 | %163
 A,,,2 ^G,,,2 F,,,2 ^E,,,2 | F,,,2 D,,2 C,,2 B,,,2 | %165
!ff!!ped! .[A,,,A,,]2 z (^E,!ped-up! .F,2) z ([A,,,A,,] | %166
!ped! .[B,,,B,,]2) z (^E,!ped-up! .F,2) z ([B,,,B,,] | %167
!ped! .[C,,C,]2) z (^E,!ped-up! .F,2) z ([C,,C,] |!ped! x2) F,4!ped-up! F,2 | %169
!ped! .C,,2 z2 !^![A,C]F[A,C]F!ped-up! |!ped! [C,^G,]C[C,G,]C !^![C^E]^G[CE]G!ped-up! | %171
!ped! .[F,F]2 z ([^E,^E]!ped-up! .[F,F]2) z!ff! ([A,,,A,,] | %172
!ped! .[B,,,B,,]2) z ([^E,^E]!ped-up! .[F,F]2) z ([B,,,B,,] | %173
!ped! .[C,,C,]2) z ([^E,^E]!ped-up! .[F,F]2) z F, |!ped! .F,2 z F, .F,2!ped-up! z F, | %175
!ped! .F,2 z ([^E,^E]!ped-up! .[F,F]2) z F, |!ped! .F,2 z F, .F,2!ped-up! z F, | %177
!ped! .F,2 z [C,F,]!ped-up! .[D,F,]2 z [^B,,F,] | %178
!ped! .[C,F,]2 z [C,F,C]!ped-up! .[D,F,D]2 z [^B,,F,^B,] | %179
 .[C,F,C]2!ff! .[C,F,C]2 .[D,F,D]2 .[^B,,F,^B,]2 | %180
 .[C,F,C]2!ff! .[C,,C,]2 .[D,,D,]2 .[^B,,,^B,,]2 | [C,,C,]2 z2 z4 |"^1" z8 | %183
[K:treble]!pp! .[CEA]2 z2 z4 | z4 z2 z (F | .G2) z[K:bass] C,!ped! TC,3!ped-up! B,,/C,/ | %186
 .[E,,E,]2 .[A,,,A,,]2 z2[K:treble] G2 | F4 C4 | x2 F2 G4 | F4 E4 | %190
[K:bass] .[D,D]2 .[A,,A,]2 z2 z F | .G2 z C,!ped! TC,3!ped-up! B,,/C,/ | %192
 .[E,,E,]2 .[A,,,A,,]2 z2[K:treble] G2 | F4 C4 | x2 F2 G4 | F4[K:bass] [A,,A,]4 | %196
!ped! [D,,D,]2 z C!ped-up! D2 z .[F,,F,] | .[G,,G,]2 .[A,,A,]2 .[B,,B,]2 .[^G,,^G,]2 | %198
!ped! .[A,,D,A,]2 z C!ped-up! .D2 z .[A,,A,] | .[B,,B,]2 .[F,,F,]2 .[G,,G,]2 .[E,,E,]2 | %200
!ped! .[D,,D,]2 DC!ped-up! .D2 .[F,,F,]2 | .[G,,D,G,]2 .[A,,D,A,]2 .[B,,D,B,]2 .[^G,,D,^G,]2 | %202
!ped! .[A,,D,A,]2 DC .D2 .[=C,=C]2!ped-up! | .[B,,B,]2 .[=C,=C]2 .[B,,B,]2 .[_B,,_B,]2 | %204
!ped! .[A,,A,]2 [CE]2 [A,EG]2 [A,EG]2!ped-up! | %205
!ped! [A,DF]2 [A,DF]2!ped-up!!ped! [A,D=F]2 [A,DF]2!ped-up! | %206
!ped! [A,CE]2 [A,CE]2 [A,,A,]2 [EG]2!ped-up! | %207
!ped! [A,,A,]2 [DF]2!ped-up!!ped! [A,,A,]2 [D=F]2!ped-up! | %208
!ped! [A,CE]2 [A,,,A,,]2 [A,,,A,,]2 [A,,,A,,]2!ped-up! | [A,,,A,,]2 z2 z4 |!p! (D,4 E,2) F,2 | %211
 G,6 G,2 | (G,2 F,2) E,2 D,2 | G,6 G,2 |!p! F,4 E,2 D,2 | ^G,4 F,2 E,2 | A,4 B,2 C2 | D6 [DE]2 | %218
!p! E8 | D6!p! [DE]2 | [A,E]4 x4 | x4 D4- | D6!mp! x2 | [G,,G,]2 [F,,F,]2 [E,,E,]2 [D,,D,]2 | D,8 | %225
 [G,,G,]2 [F,,F,]2 [E,,E,]2 [D,,D,]2 | [G,,G,]2 [G,D]4 [F,^D]2 | %227
 [B,E]2 [A,=C]2 [G,B,E]2 [^G,B,E]2 | [A,CE]2!ped! A,,,A,,A,,,A,,A,,,A,,!ped-up! | %229
 .A,,,2 .[A,,E,]2 .[A,,A,]2 .[A,,A,]2 | [A,,^G,]2!ped! A,,,A,,A,,,A,,A,,,A,,!ped-up! | %231
 .A,,,2 .[A,,^G,]2 .[A,,G,]2 .[A,,G,]2 |!ped! .[A,,=G,]2 .[G,CE]2 .[G,CE]2 .[A,,G,]2!ped-up! | %233
!ped! .[A,,F,]2 .[A,DF]2 .[A,DF]2 .[A,DF]2!ped-up! |!ped! [A,CEG]2 z2 z4 | z8!ped-up! | %236
!ped!{/D,,} A,8 | F,4 D,4!ped-up! |!ped! .C,2 x2 x4!ped-up! |!ped! .A,,2 x2 x4!ped-up! | %240
!mf!!ped!{/D,,} A,8!ped-up! | F,4 D,4 |!ped! .C,2 x2 x4!ped-up! |!ped! .A,,2 x2 x4!ped-up! | %244
!mf!!ped!{/D,,} A,8!ped-up! |!ped! ^A,8!ped-up! |!ped! B,8!ped-up! |!ped! C8!ped-up! | %248
!ped! D8!ped-up! |!f! z2!p! .E2 .[G,B,]2 .E2 |!f! x2!p! .D2 .[F,A,]2 .D2 | %251
!f! x2!p! .[A,C]2 .G,2 .[A,C]2 |!ped!{/D,,} A,8 | =F,4 D,4!ped-up! |!ped! C,2 x2 x4!ped-up! | %255
!ped! A,,2 x2 x4!ped-up! |!ped!{/D,,} A,8- | A,4 G,2 =F,2!ped-up! | %258
!ped! z2 .E,2 .G,2 .E,2!ped-up! |!ped! z2 .E,2 .G,2 .E,2!ped-up! | %260
!ped! z2 .=F,2 .A,2 .F,2!ped-up! | z2 .G,2 ._B,2 .G,2 | z2 .[A,=C]2 .=F,2 .[A,C]2 | E8 | %264
!ped! =F8!ped-up! |!ped! z2 ._E2 .[G,_B,]2 .E2!ped-up! |!ped! z2 .=F,2 .A,2 .F,2!ped-up! | %267
!ped! z2 .E,2 .A,2 .E,2!ped-up! |!f!!ped! .[F,,,F,,]2 .[A,,,A,,]2 .[D,,D,]2 .[F,,F,]2 | %269
 [A,,D,A,]6!f! .[F,,,F,,]2!ped-up! |!ped! .[G,,,G,,]2 .[B,,,B,,]2 .[D,,D,]2 .[G,,G,]2 | %271
 [B,,D,B,]6!ped-up!!f! .[^G,,^G,]2 |!ped! .[A,,A,]2 .[A,DF]2 z2 .[A,DF]2!ped-up! | %273
!ped! .[G,,G,]2 .[G,CE]2 z2 .[G,CE]2!ped-up! |!f!!ped! .[F,,F,]2 .[A,,A,]2 .[D,D]2 .[F,F]2 | %275
[K:treble] [A,DFA]6[K:bass]!f! .[F,,F,]2!ped-up! | %276
!ped! .[G,,G,]2 .[B,,B,]2 .[D,D]2 .[G,G]2!ped-up! | %277
[K:treble]!ped! [B,DB]6!ped-up![K:bass]!ff! .[^G,,^G,]2 | %278
!ff!!ped! .[A,,A,]2 .[=C,=C]2 .[F,F]2 .[A,A]2 | .=C2 .[A,A]2 .[F,F]2 .[=C,C]2 | %280
 .[A,,A,]2 .[=C,=C]2 .[F,F]2 .[A,A]2 | .=C2 .[A,A]2 .[F,F]2 .[=C,C]2 | %282
 .[A,,A,]2!ped-up!!p! .=C,2 .F,2 .A,2 | .=C2 .A,2 .F,2 .=C,2 | .A,,2 .=C,2 .F,2 .A,2 | %285
 .=C2 .A,2 .F,2 .=C,2 | .A,,2 z2 z4 | z8 | z8 | z8 | z8 |[K:treble] [=CD]2 z2 z4 | z8 | %293
 [B,D]2 z2 z2 z (F | .G2) z[K:bass] C, TC,3 B,,/C,/ | .[E,,E,]2 .[A,,,A,,]2 z2[K:treble] G2 | %296
 F4 C4 | x2 F2 G4 | F4 E4 |[K:bass] .[D,D]2 .[A,,A,]2 z2 z (F | .G2) z C, TC,3 B,,/C,/ | %301
 .[E,,E,]2 .[A,,,A,,]2 z2 z (F | .G2) z D, TD,3 C,/D,/ | .[G,,G,]2 .[_B,,,_B,,]2 z4 | %304
 z2!ped! .[D,,D,]2 .[G,,G,]2 .[=B,,,=B,,]2!ped-up! | %305
 z2!ped! .[D,,D,]2 .[G,,G,]2 .[=C,,=C,]2!ped-up! | %306
 z2!ped! .[G,,G,]2 .[_B,,_B,]2 .[^C,,^C,]2!ped-up! | %307
!ped! .[D,,D,]2 .[=B,,=B,]2!ped-up!!ped! .[_E,,_E,]2 .[=C,=C]2!ped-up! | %308
!ped! .[=E,,=E,]2 .[^C,^C]2!ped-up!!ped! .[=F,,=F,]2 .[D,D]2!ped-up! | %309
 .[=F,,=F,]2 .[D,D]2!ped! .[^F,,^F,]2 .[D,D]2!ped-up! | %310
!ped! .[G,,G,]2 .[D,D]2!ped-up!!ped! .[A,,A,]2 .[D,D]2!ped-up! | %311
!ped! .[_B,,_B,]2 .[D,D]2!ped-up!!ped! .[^G,,^G,]2 .[D,D]2!ped-up! | A,!pp!^G,A,G, A,G,A,G, | %313
 A,^G,A,G, A,G,A,G, | A,!pp!^G,A,G, A,G,A,G, | A,^G,A,G, A,G,A,G, | A,!pp!^G,A,G, A,G,A,G, | %317
!ped! [A,D=F]2!pp! x2 E2 D2!ped-up! | A,!pp!^G,A,G, A,G,A,G, |!ped! [A,D=F]2!pp! x2 E2 D2!ped-up! | %320
 [CE]2!ped! A,,A, A,,A,A,,A,!ped-up! |!ped! A,,A,A,,A,!ped-up!!ped! _B,2 A,2!ped-up! | %322
 D,!pp!C,D,C, D,C,D,C, | D,C,D,C, D,C,D,C, | D,!pp!C,D,C, D,C,D,C, | D,C,D,C, D,C,D,C, | %326
 D,!mp!C,D,C, D,C,D,C, |!ped! [D,G,_B,]2!mp! x2 A,2!ped-up! G,2 | D,!mp!C,D,C, D,C,D,C, | %329
!ped! [D,G,_B,]2!mp! x2 A,2!ped-up! G,2 | [F,A,]2!f!!ped! [D,,D,]2 [E,,E,]2 [F,,F,]2!ped-up! | %331
 [G,,G,]4!f!!ped! [F,,F,]2 [E,,E,]2!ped-up! | [A,,A,]4!f!!ped! [G,,G,]2 [F,,F,]2!ped-up! | %333
 [B,,B,]4!f!!ped! [A,,A,]2 [G,,G,]2!ped-up! |!ped!{/C,,-} [C,,C,A,C]8- | %335
 !fermata![C,,C,A,C]8!ped-up! |!p! [^A,,,^A,,]8- | !fermata![A,,,A,,]8 | %338
!pp! .F,,2 z2 .[E,,E,]2 z2 | .[D,,D,]2 z2 .[C,,C,]2 z2 | .[B,,,B,,]2 z2 .[A,,A,]2 z2 | %341
 .[G,,G,]2 z2 .[F,,F,]2 z2 | .[E,,E,]2 z2 .D,2 z2 | .C,2 z2 .B,,2 z2 | .A,,2 .[A,C]2 .D,2 .[A,D]2 | %345
 .G,,2 .[G,B,]2 .A,,2 .[A,C]2 | .[F,,F,]2 z2 .^A,2 z2 | .B,2 z2 .C2 z2 | .D2 .B,2 .^D2 .B,2 | %349
 .E2 .B,2 .F2 .B,2 | .G2 z2 .^G,2 z2 | .A,2 z2 .B,2 z2 | .C2 .A,2 .C2 .A,2 | .D2 .A,2 .E2 .A,2 | %354
 .F2 .D2 z2 .[=C,=C]2 | z2 .[B,,B,]2 z2 .[A,,A,]2 | z2 .[G,,G,]2 z2 .[=C,=C]2 | %357
 z2 .[B,,B,]2 z2 .[A,,A,]2 | [G,,G,]4 [=C,=C]4 | [B,,B,]4 [A,,A,]4 | [G,,G,]4 [=C,,=C,]4 | %361
 [B,,,B,,]4 [A,,,A,,]4 | [G,,,G,,]8 | [=C,,=C,]8 | [B,,,B,,]8 | [A,,,A,,]8 | %366
!ppp! G,,,G,,G,,,G,,G,,,G,,G,,,G,, | G,,,G,,G,,,G,,G,,,G,,G,,,G,, | G,,,G,,G,,,G,,G,,,G,,G,,,G,, | %369
 G,,,G,,G,,,G,,G,,,G,,G,,,G,, | G,,,G,,G,,,G,,G,,,G,,G,,,G,, | G,,,G,,G,,,G,,G,,,G,,G,,,G,, | %372
!ped! !^![^G,,,D,,]^G,,[G,,,D,,]G,,[G,,,D,,]G,,[G,,,D,,]G,, | %373
 [^G,,,D,,]^G,,[G,,,D,,]G,,[G,,,D,,]G,,[G,,,D,,]G,,!ped-up! | %374
!ff!!ped! [A,,,A,,]2 [A,,D,F,A,]2 [A,,D,F,A,]2 [A,,D,F,A,]2 | %375
 [A,,D,F,A,]2 [A,,D,F,A,]2 [A,,D,F,A,]2 [A,,D,F,A,]2 | %376
 [A,,D,F,A,]2 [A,DF]2 [A,DF]2 [A,DF]2!ped-up! | .A,2 .G,.F, .E,.D,.C,.B,, | %378
!ped! [A,,,A,,]2 [A,,C,E,G,]2 [A,,C,E,G,]2 [A,,C,E,G,]2 | %379
 [A,,C,E,G,]2 [A,,C,E,G,]2 [A,,C,E,G,]2 [A,,C,E,G,]2 | %380
 [A,,C,E,G,]2 [A,CEG]2 [A,CEG]2 [A,CEG]2!ped-up! | .A,.G,.F,.E, .D,.C,.B,,.A,, | %382
!ped! .[D,,D,]2 z (C!ped-up! .D2) z ([F,,F,] |!ped! .[G,,G,]2) z (C!ped-up! .D2) z ([^G,,^G,] | %384
!ped! .[A,,A,]2) z (C!ped-up! .D2) z ([_B,,_B,] |!ped! .[=B,,=B,]2) z C!ped-up! .D2 z [B,,B,] | %386
!ped! [=C,=C][I:staff -1][D=cd][I:staff +1][A,,A,][I:staff -1][DAd][I:staff +1] [C,C][I:staff -1][Dcd][I:staff +1][B,,B,][I:staff -1][DBd]!ped-up! | %387
!ped![I:staff +1] [=C,=C][I:staff -1][D=cd][I:staff +1][A,,A,][I:staff -1][DAd][I:staff +1] [C,C][I:staff -1][Dcd][I:staff +1][B,,B,][I:staff -1][DBd]!ped-up! | %388
!ped![I:staff +1] [=C,=C][I:staff -1][D=cd][I:staff +1][B,,B,][I:staff -1][DBd][I:staff +1] [C,C][I:staff -1][Dcd][I:staff +1][B,,B,][I:staff -1][DBd]!ped-up! | %389
!ped![I:staff +1] [=C,=C][I:staff -1][D=cd][I:staff +1][A,,A,][I:staff -1][DAd][I:staff +1] [F,,F,][I:staff -1][DFd][I:staff +1][=C,,C,][I:staff -1][Dd]!ped-up! | %390
!ped![I:staff +1] [B,,,B,,]2 z2 [D,G,B,D]2 z2!ped-up! | %391
!ped! [_B,,,_B,,]2 z2 [D,G,_B,D]2 z2!ped-up! |!ped! [A,,,A,,]2 z2 [F,DF]2 z2!ped-up! | %393
!ped! [A,,,A,,]2 z2 [A,E]2 z2!ped-up! | %394
!ped! [=C,=C][I:staff -1][D=cd][I:staff +1][A,,A,][I:staff -1][DAd][I:staff +1] [C,C][I:staff -1][Dcd][I:staff +1][B,,B,][I:staff -1][DBd]!ped-up! | %395
!ped![I:staff +1] [=C,=C][I:staff -1][D=cd][I:staff +1][A,,A,][I:staff -1][DAd][I:staff +1] [C,C][I:staff -1][Dcd][I:staff +1][B,,B,][I:staff -1][DBd]!ped-up! | %396
!ped![I:staff +1] [=C,=C][I:staff -1][D=cd][I:staff +1][B,,B,][I:staff -1][DBd][I:staff +1] [C,C][I:staff -1][Dcd][I:staff +1][B,,B,][I:staff -1][DBd]!ped-up! | %397
!ped![I:staff +1] [=C,=C][I:staff -1][D=cd][I:staff +1][A,,A,][I:staff -1][DAd][I:staff +1] [F,,F,][I:staff -1][DFd][I:staff +1][=C,,C,][I:staff -1][Dd]!ped-up! | %398
!ped![I:staff +1] [B,,,B,,]2 z2 [F,B,^D]2 z2!ped-up! |!ped! [A,,,A,,]2 z2 [F,B,^D]2 z2!ped-up! | %400
!ped! [G,,,G,,]2 [B,,,B,,]2 [E,,E,]2 [G,,G,]2!ped-up! | [A,,A,]2 [DF]2 [A,,A,]2 [CE]2 | %402
 .[D,,D,]2 A,F, DF,A,F, |!ped! z F,A,F, DF,A,F,!ped-up! |!ped! z G,A,G,!ped-up! EG,A,G, | %405
!ped! z G,A,G, CG,A,G,!ped-up! |!ped! z F,A,F,!ped-up! DF,A,F, |!ped! z F,A,F, DF,A,F,!ped-up! | %408
!ped! z G,A,G,!ped-up! EG,A,G, |!ped! z G,A,G, CG,A,G,!ped-up! | D,F,A,D FDA,F, | %411
!ped! z G,A,G, CG,A,G,!ped-up! | D,F,A,D FDA,F, |!ped! z G,A,G, CG,A,G,!ped-up! | %414
 .[D,F,D]2 z2!ped! [F,,F,]4- | [F,,F,]8!ped-up! |!pp! .[F,,F,]2 z2 .[E,,E,]2 z2 | %417
 .[D,,D,]2 z2 .[C,,C,]2 z2 | .[B,,,B,,]2 z2 z4 |"^1" z8 | .[B,D]2 .[B,D]2 z2 .[B,D]2 | %421
 z2 .[_B,C]2 z2 .[B,D]2 | !arpeggio!.[C,A,E]2 z2 z4 | z4 z2 z ([C,,C,] | %424
!ped! .[D,,D,]2) z F,!ped-up! TF,3 E,/F,/ | .A,2 .D,2 z2 z ([C,,C,] | %426
!ped! .[D,,D,]2) z A,!ped-up! TA,3 ^G,/A,/ | .D2 .F,2 z2 z ([C,,C,] | %428
!ped! .[D,,D,]2) .D2 .F2 .A,2 | .[D,,D,]2[K:treble] .F2 .A2 .D2 | %430
[K:bass] .[D,,D,]2 .A,2 .D2 .[A,,A,]2 | .[D,D]2 .[A,,A,]2 .[D,D]2 .[A,,A,]2!ped-up! | %432
 [D,D]2 [A,,A,]2 [D,,D,]2 [A,,,A,,]2 | [D,,D,]2 [A,,,A,,]2 [D,,D,]2 [A,,,A,,]2 | %434
 .[D,,D,]2[K:treble]!ped! cB AGFE | .D2[K:bass] CB, A,G,F,E,!ped-up! | %436
 .D,2!8vb(!!ped! C,,,C,, D,,,D,,C,,,C,, | D,,,D,,C,,,C,, D,,,D,,C,,,C,,!ped-up! | %438
 .[D,,,D,,]2!8vb)! z2 z4 | [D,F,A,D]2 z2 [D,F,A,D]2 z2 | [D,F,A,D]2 z2 z4 | [D,F,A,D]2 z2 z4 | %442
!8vb(! [D,,,D,,]2!8vb)! z2 !fermata!z4 |] %443
V:3
 x | x8 | x8 | x A3 x A3 | x A3 B4 | A4 G4 | x8 | x8 | x8 | x A3 x A3 | x A3 B4 | A4 G4 | %12
 [DF]2 x2 x4 | x8 | x8 | x8 | x8 | x8 | x8 | x8 | x8 | x8 | x8 | x8 | x8 | x8 | x8 | %27
 ([A,C]4 [B,D]2) [CE]2 | x8 | ([A,C]4 [B,D]2) [CE]2 | [DF]8 | B4 A2 G2 | [EA]8 | A2 ^G2 F2 x2 | %34
 A6 A2 | A2 ^G2 F2 x2 | A2 c2 [Ece]2 [DBd]2 | x8 | x8 | A4 B2 c2 | x8 | [Aa]4 [Bb]2 [cegc']2 | x8 | %43
 x8 | x2 ^GEGEGE | ^G!f!BGB GBeG | fAAF AFAF | A!f!^dAd AdfA | ^gB^GD G2 g2 | acAE A2 a2 | x8 | %51
 x8 | .e2 c2 A2 c2 | x8 | x8 | d4 B4 | c2 .[ce]2 .[Ac]2 .[ce]2 | x8 | x8 | d4 B4 | c2 x2 x4 | %61
 !>!F8- | F8 | [GA]8 | A8 | x8 | x8 | x8 | x8 | x8 | e8 | d4 B4 | =c2 .[ce]2 .[Ac]2 .[ce]2 | x8 | %74
 G8 | G8 | G4 x4 | z2 [Ad]2 z2 [Ad]2 | =C8 | B,8 | x8 | x8 | x8 | x8 | x8 | x8 | x8 | x8 | x8 | %89
 x8 | x8 | x8 | x8 | x8 | x8 | x8 | x8 | x8 | x8 | x8 | x8 | x8 | x8 | x8 | x8 | x8 | x8 | x8 | %108
 x8 | x8 | x A3 x A3 | x A3 B4 | A4 G4 | x8 | x8 | x8 | x A3 x A3 | x A3 _B4 | A4 [EG]4 | %119
 x3 A A2 x2 | x8 | x3 _B B2 x2 | x8 | x3 A A2 x2 | x8 | x3 _B B2 x2 | x8 | x8 | x8 | x8 | x8 | %131
 x2 .A.A (^FD).A.A | (GD)._B.B (AD).=c.c | [D_B]2 z2 !>!G4- | G8- | G2 .G.G (=E=C).G.G | %136
 (=F=C).A.A (GC)._B.B | [=C_A]2 z2 !>!=F4- | F8 | [D_B]2 x2 x4 | x8 | x8 | x8 | x8 | x8 | x8 | x8 | %147
 x8 | x8 | x8 | x8 | x2 .[D=F]2 .[FA]2 .A,2 | x2 .[^DF]2 .[FA]2 .B,2 | x2 .[EG]2 .[GB]2 .B,2 | %154
 x2 .[^E^G]2 .[GB]2 .C2 | x8 | x8 | [cc']6 [^B^b]2 | x8 | x8 | x8 | C4 x2 ^B,2 | C2 D2 C2 B,2 | %163
 A,2 ^G,2[I:staff +1] F,2 ^E,2 | F,2[I:staff -1] D2 C2 B,2 | x8 | x8 | x8 | x8 | x8 | %170
 [F^G]2 z2 c2 z2 | x8 | x8 | x8 | x8 | x8 | x8 | x8 | x8 | x8 | x2!8va(! x6 | x2!8va)! x6 | x8 | %183
 x8 | x8 | x8 | x8 | x A3 x A3 | x A3 B4 | A4 G4 | x8 | x8 | x8 | x A3 x A3 | x A3 B4 | A4 G4 | %196
 [DF]2 x2 x4 | x8 | x8 | x8 | x8 | x8 | x8 | x8 | x8 | x8 | x8 | x8 | x8 | x8 | x8 | %211
 ([A,C]4 [B,D]2) [CE]2 | x8 | ([A,C]4 [B,D]2) [CE]2 | [DF]8 | B4 A2 G2 | [EA]8 | A2 ^G2 F2 x2 | %218
 A6 A2 | A2 ^G2 F2 x2 | z2 =c2 [Ae]2 [Bd]2 | =c2 ^c2 d2 [F=c]2 | G2 x2 x4 | d4 e2 f2 | g2 x2 x4 | %225
 d4 e2 f2 | g2 x2 x4 | x8 | x2 CA,CA,CA, | C2 x2 x4 | x2 DB,DB,DB, | D2 x2 x4 | x8 | x8 | x8 | x8 | %236
 x8 | x8 | z2 .A2 .[EG]2 .A2 | g4 e4 | .f2 x2 x4 | x8 | z2 .A2 .[EG]2 .A2 | g4 e4 | .f2 x2 x4 | %245
 x8 | x8 | =A8- | A8 | [Be]6 [GB]2 | [FA]8 | [EG]8 | x8 | x8 | z2 .A2 .[EG]2 .A2 | g4 e4 | %256
 =f2 x2 x4 | x8 | !^!=C8- | C8- | C8 | !arpeggio![DG]2 x2 x4 | x8 | x8 | x8 | x8 | D8 | C8 | x8 | %269
 x8 | x8 | x8 | x8 | x8 | x8 | x8 | x8 | x8 | x8 | x8 | x8 | x8 | x8 | x8 | x8 | x4 x2 x (^C | %286
 .D2) x2 x4 | x8 | x8 | x8 | x8 | F2 x2 x4 | x8 | G2 x2 x4 | x8 | x8 | x A3 x A3 | x A3 B4 | %298
 A4 G4 | x8 | x8 | x8 | x8 | x8 | x2 .D2!f! .G2 .=B,2 | x2 .D2!f! .G2 .=C2 | x2 .G2!f! ._B2 .^C2 | %307
 .=B2 .D2 .=c2 ._E2 | .^c2 .=E2 .d2 .[=f=f']2- | x8 | x8 | [Gg]2 [=F=f]2 [Ee]2 [Dd]2 | x8 | x8 | %314
 x8 | x8 | x8 | x8 | x8 | x8 | x8 | x8 | x4[K:bass] x4 | x8 |[K:treble] x8 | x8 | x8 | x8 | x8 | %329
 x8 | x8 | x8 | x8 | x8 | x8 | x8 | x8 | x8 | [F,F]8- | [F,F]8 | [B,B]8- | [B,B]8 | [Ee-]8 | e8 | %344
 x8 | x8 | x2 .F2 x2 F2 | x2 .F2 x2 F2 | x4 .^d2 x2 | .e2 x2 .f2 x2 | g2 .E2 z2 .E2 | %351
 z2 .E2 z2 .E2 | x4 .c2 z2 | .d2 x2 .e2 x2 | .f2 x2 .[df]2 x2 | .[dg]2 x2 .[da]2 x2 | %356
 .[db]2 x2 .[df]2 x2 | .[dg]2 x2 .[da]2 x2 | d2 x2 x4 | G4 A4 | B4 f4 | g4 a4 | x8 | x8 | x8 | x8 | %366
 x8 | x8 | x8 | x8 | x8 | x8 | x8 | x8 | x8 | x2!8va(! x6 | x4!8va)! x4 | x8 | x8 | x2!8va(! x6 | %380
 x4!8va)! x4 | x8 | x8 | x8 | x8 | x8 | x8 | x8 | x8 | x8 | x8 | x8 | x8 | x8 | x8 | x8 | x8 | x8 | %398
 x8 | x8 |!8va(! x8 | x8 | x6!8va)! x2 | x8 | x3!8va(! x3!8va)! x2 | x8 | x3!8va(! x3!8va)! x2 | %407
 x8 | x3!8va(! x3!8va)! x2 | x6 [EA]2!8va(! | x2!8va)! x4 d2!8va(! | x2!8va)! x2 x2 A2!8va(! | %412
 x2!8va)! x2 x2 d2!8va(! | x2!8va)! x2 x2 x2 | x8 | x8 | .[^A,C]2 .[A,C]2 z2 .[A,C]2 | %417
 z2 .[B,D]2 z2 .[^A,E]2 | .[B,D]2 x2 x4 | x8 | x8 | x8 | x8 | x8 | x8 | x8 | x8 | x8 | x8 | x8 | %430
 x8 | x8 | x8 | x8 | x8 | x8 | x8 | x8 | x8 | x8 | x8 | x8 | x8 |] %443
V:4
 x | x8 | x6[K:treble] x2 | x8 | D4 G,4 | A,8 |[K:bass] x8 | x8 | x6[K:treble] x2 | x8 | D4 G,4 | %11
 A,4[K:bass] x4 | x8 | x8 | x8 | x8 | x8 | x8 | x8 | x8 | x8 | x8 | x8 | x8 | x8 | x8 | %26
 D,,2 x2 x4 | A,,2 x2 x4 | D,2 x2 x4 | A,,2 x2 x4 | D,,2 x2 x4 | x4 x2 E,,2 | A,,2 x2 x4 | %33
 E,2 x2 x4 | D2 C2 B,2 A,2 | E,2 x2 x4 | [A,D]2 C2 x4 | x8 | D,,2 x2 x2 D,2 | D,2 C,2 B,,2 A,,2 | %40
 D,6 D,2 | D,2 C,2 B,,2 A,,2 | D,6 C,2 | F,2 E,2 D,2 ^D,2 | E,2 E,,E,E,,E,E,,E, | .E,,2 x2 x2 E,2 | %46
 E,2 E,,E, E,,E,E,,E, | .E,,2 x2 x2 E,2 | [E,B,]2 x2 .[E,,E,]2 .[E,B,D]2 | x8 | x8 | x8 | x8 | x8 | %54
 x8 | E,2 x2 x4 | x8 | x8 | x8 | E,2 x2 x4 | z2 .A,2 .C2 .A,2 | !>!F,,2 x2 x4 | B,,2 x2 x4 | %63
 A,,2 x2 x4 | D,2 x2 x4 | .D,2 x2 x4 | .E,2 z2 z4 | .E,2 z2 z4 | A,,2 x2 x4 | A,,2 x2 x4 | %70
 ^G,,2 x2 x4 | [E,,E,]2 x2 x4 | x8 | A,2 x2 x4 | x8 | x8 | x8 | x8 | .G,,2 x2 x4 | .G,,2 x2 x4 | %80
 [=C,,=C,]2 x2 x4 | [D,,D,]2 x2 x4 | E,,2 z2 z4 | E,,2 z2 z4 | x8 | x8 | x8 | x8 | x8 | x8 | x8 | %91
 x8 | x8 | x8 | x8 | x8 | x8 | x8 | .E,,2 x2 x4 | x8 | x8 | x8 | x8 | x8 | x8 | x8 | x8 | x8 | x8 | %109
 x6[K:treble] x2 | x8 | D4 G,4 | A,8 |[K:bass] x8 | x8 | x6[K:treble] x2 | x8 | D4 G,4 | %118
 A,4[K:bass] x4 | x8 | x8 | x8 | x8 | x8 | x8 | x8 | x8 | x8 | x8 | x8 | x8 | x8 | x8 | %133
 G,,2 x2 x4 | x8 | !arpeggio!=C,2 x2 x4 | x8 | !>!=F,,2 x2 x4 | x8 | x8 | x8 | x8 | x8 | x8 | x8 | %145
 x8 | x8 | x8 | x8 | x8 | x8 | x8 | x8 | x8 | x8 | x8 | x8 | x8 | x8 | x8 | x8 | %161
 C,,C,C,,C, C,,C,^B,,,^B,, | C,,C,D,,D, C,,C,B,,,B,, | A,,,A,,^G,,,^G,, F,,,F,,^E,,,^E,, | %164
 F,,,F,,D,,D, C,,C,B,,,B,, | x8 | x8 | x8 | .[D,,D,]2 z ([D,,D,] .[^B,,,^B,,]2) z ([B,,,B,,] | %169
 C,2) x2 x4 | x8 | x8 | x8 | x6 x [C,,C,] | .[D,,D,]2 x [D,,D,] .[^B,,,^B,,]2 x [B,,,B,,] | %175
 .[C,,C,]2 x4 x [C,,C,] | .[D,,D,]2 x [D,,D,] .[^B,,,^B,,]2 x [B,,,B,,] | .[C,,C,]2 x2 x4 | x8 | %179
 x8 | x8 | x8 | x8 |[K:treble] x8 | x8 | x3[K:bass] x5 | x6[K:treble] x2 | x8 | D4 G,4 | A,8 | %190
[K:bass] x8 | x8 | x6[K:treble] x2 | x8 | D4 G,4 | A,4[K:bass] x4 | x8 | x8 | x8 | x8 | x8 | x8 | %202
 x8 | x8 | x8 | x8 | x8 | x8 | x8 | x8 | D,,2 x2 x4 | A,,2 x2 x4 | D,2 x2 x4 | A,,2 x2 x4 | %214
 D,,2 x2 x4 | x4 x2 E,,2 | A,,2 x2 x4 | E,2 x2 x4 | D2 C2 B,2 A,2 | E,2 x2 x4 | %220
 D2 =C2 [CE]2 [B,D]2 | [A,=C]2 [G,_B,]2 [F,A,]2 [D,A,]2 | G,6 [G,,G,]2 | x8 | [G,,G,]6 [G,,G,]2 | %225
 x8 | x8 | x8 | x8 | x8 | x8 | x8 | x8 | x8 | x8 | x8 | x8 | x8 | x8 | x8 | x8 | x8 | x8 | x8 | %244
 x8 | !>!F,,2 x2 x4 | B,,2 x2 x4 | A,,2 x2 x4 | D,2 x2 x4 | .G,,2 x2 x4 | .A,,2 x2 x4 | %251
 .A,,2 x2 x4 | x8 | x8 | x8 | x8 | x8 | D,2 x2 x4 | .=C,2 x2 z4 | ._B,,2 x2 x4 | .A,,2 x2 x4 | %261
 ._B,,2 x2 x4 | .=C,2 x2 x4 | !arpeggio!.^C,2 x2 x4 | !arpeggio!.=D,2 x2 x4 | .G,,2 x2 x4 | %266
 .A,,2 x2 x4 | .A,,2 x2 x4 | x8 | x8 | x8 | x8 | x8 | x8 | x8 |[K:treble] x6[K:bass] x2 | x8 | %277
[K:treble] x6[K:bass] x2 | x8 | x8 | x8 | x8 | x8 | x8 | x8 | x8 | x8 | x8 | x8 | x8 | x8 | %291
[K:treble] x8 | x8 | x8 | x3[K:bass] x5 | x6[K:treble] x2 | x8 | D4 G,4 | A,4 A,4 |[K:bass] x8 | %300
 x8 | x8 | x8 | x8 | x8 | x8 | x8 | x8 | x8 | x8 | x8 | x8 | A,,2 x2 x4 | z8 | A,,2 x2 x4 | z8 | %316
 A,,2 x2 x4 | x2 A,,A, CA,B,A, | A,,2 x2 x4 | x2 A,,A, CA,B,A, | x8 | x4 !arpeggio!A,,2 z2 | %322
 D,,2 x2 x4 | x8 | D,,2 x2 x4 | x8 | D,,2 x2 x4 | x2 D,,D, F,D,E,D, | D,,2 x2 x4 | %329
 x2 D,,D, F,D,E,D, | x8 | x8 | x8 | x8 | x8 | x8 | x8 | x8 | x8 | x8 | x8 | x8 | x8 | x8 | x8 | %345
 x8 | x2 x2 E,2 x2 | D,2 z2 C,2 x2 | B,,2 x2 A,2 x2 | G,2 x2 F,2 x2 | E,2 x2 D,2 x2 | %351
 C,2 x2 B,,2 x2 | A,,2 x2 G,2 x2 | F,2 x2 E,2 x2 | D,2 x2 x4 | x8 | x8 | x8 | x8 | x8 | x8 | x8 | %362
 x8 | x8 | x8 | x8 | x8 | x8 | x8 | x8 | x8 | x8 | x8 | x8 | x8 | x8 | x8 | x8 | x8 | x8 | x8 | %381
 x8 | x8 | x8 | x8 | x8 | x8 | x8 | x8 | x8 | x8 | x8 | x8 | x8 | x8 | x8 | x8 | x8 | x8 | x8 | %400
 x8 | x8 | x8 | .D,2 x2 x4 | .A,,2 x2 x4 | .A,,2 x2 x4 | .D,2 x2 x4 | .D,2 x2 x4 | .A,,2 x2 x4 | %409
 .A,,2 x2 x4 | x8 | .A,,2 x2 x4 | x8 | .A,,2 x2 x4 | x8 | x8 | x8 | x8 | x8 | x8 | %420
 .G,2 z2 .F,2 z2 | .E,2 z2 .D,2 z2 | x8 | x8 | x8 | x8 | x8 | x8 | x8 | x2[K:treble] x6 | %430
[K:bass] x8 | x8 | x8 | x8 | x2[K:treble] x6 | x2[K:bass] x6 | x2!8vb(! x6 | x8 | x2!8vb)! x6 | %439
 x8 | x8 | x8 |!8vb(! x2!8vb)! x6 |] %443
V:5
 x | x8 | x6[K:treble] x2 | x8 | x8 | x8 |[K:bass] x8 | x8 | x6[K:treble] x2 | x8 | x8 | %11
 x4[K:bass] x4 | x8 | x8 | x8 | x8 | x8 | x8 | x8 | x8 | x8 | x8 | x8 | x8 | x8 | x8 | x8 | x8 | %28
 x8 | x8 | x8 | x8 | x8 | x8 | A,6 x2 | x8 | x8 | x8 | x8 | x8 | x8 | x8 | x8 | x8 | x8 | x8 | x8 | %47
 x8 | x8 | x8 | x8 | x8 | x8 | x8 | x8 | x8 | x8 | x8 | x8 | x8 | x8 | x8 | x8 | x8 | x8 | x8 | %66
 x8 | x8 | x8 | x8 | x8 | x8 | x8 | x8 | x8 | x8 | x8 | x8 | x8 | x8 | x8 | x8 | x8 | x8 | x8 | %85
 x8 | x8 | x8 | x8 | x8 | x8 | x8 | x8 | x8 | x8 | x8 | x8 | x8 | x8 | x8 | x8 | x8 | x8 | x8 | %104
 x8 | x8 | x8 | x8 | x8 | x6[K:treble] x2 | x8 | x8 | x8 |[K:bass] x8 | x8 | x6[K:treble] x2 | x8 | %117
 x8 | x4[K:bass] x4 | x8 | x8 | x8 | x8 | x8 | x8 | x8 | x8 | x8 | x8 | x8 | x8 | x8 | x8 | x8 | %134
 x8 | x8 | x8 | x8 | x8 | x8 | x8 | x8 | x8 | x8 | x8 | x8 | x8 | x8 | x8 | x8 | x8 | x8 | x8 | %153
 x8 | x8 | x8 | x8 | x8 | x8 | x8 | x8 | x8 | x8 | x8 | x8 | x8 | x8 | x8 | x8 | x8 | x8 | x8 | %172
 x8 | x8 | x8 | x8 | x8 | x8 | x8 | x8 | x8 | x8 | x8 |[K:treble] x8 | x8 | x3[K:bass] x5 | %186
 x6[K:treble] x2 | x8 | x8 | x8 |[K:bass] x8 | x8 | x6[K:treble] x2 | x8 | x8 | x4[K:bass] x4 | %196
 x8 | x8 | x8 | x8 | x8 | x8 | x8 | x8 | x8 | x8 | x8 | x8 | x8 | x8 | x8 | x8 | x8 | x8 | x8 | %215
 x8 | x8 | x8 | A,6 x2 | x8 | x8 | x8 | x8 | x8 | x8 | x8 | x8 | x8 | x8 | x8 | x8 | x8 | x8 | x8 | %234
 x8 | x8 | x8 | x8 | x8 | x8 | x8 | x8 | x8 | x8 | x8 | x8 | x8 | x8 | x8 | x8 | x8 | x8 | x8 | %253
 x8 | x8 | x8 | x8 | x8 | x8 | x8 | x8 | x8 | x8 | z2 A,2 [E,G,]2 A,2 | z2 .D2 .[=F,A,]2 .D2 | x8 | %266
 x8 | x8 | x8 | x8 | x8 | x8 | x8 | x8 | x8 |[K:treble] x6[K:bass] x2 | x8 | %277
[K:treble] x6[K:bass] x2 | x8 | x8 | x8 | x8 | x8 | x8 | x8 | x8 | x8 | x8 | x8 | x8 | x8 | %291
[K:treble] x8 | x8 | x8 | x3[K:bass] x5 | x6[K:treble] x2 | x8 | x8 | x8 |[K:bass] x8 | x8 | x8 | %302
 x8 | x8 | x8 | x8 | x8 | x8 | x8 | x8 | x8 | x8 | x8 | x8 | x8 | x8 | x8 | x8 | x8 | x8 | x8 | %321
 x8 | x8 | x8 | x8 | x8 | x8 | x8 | x8 | x8 | x8 | x8 | x8 | x8 | x8 | x8 | x8 | x8 | x8 | x8 | %340
 x8 | x8 | x8 | x8 | x8 | x8 | x8 | x8 | x8 | x8 | x8 | x8 | x8 | x8 | x8 | x8 | x8 | x8 | x8 | %359
 x8 | x8 | x8 | x8 | x8 | x8 | x8 | x8 | x8 | x8 | x8 | x8 | x8 | x8 | x8 | x8 | x8 | x8 | x8 | %378
 x8 | x8 | x8 | x8 | x8 | x8 | x8 | x8 | x8 | x8 | x8 | x8 | x8 | x8 | x8 | x8 | x8 | x8 | x8 | %397
 x8 | x8 | x8 | x8 | x8 | x8 | x8 | x8 | x8 | x8 | x8 | x8 | x8 | x8 | x8 | x8 | x8 | x8 | x8 | %416
 x8 | x8 | x8 | x8 | x8 | x8 | x8 | x8 | x8 | x8 | x8 | x8 | x8 | x2[K:treble] x6 |[K:bass] x8 | %431
 x8 | x8 | x8 | x2[K:treble] x6 | x2[K:bass] x6 | x2!8vb(! x6 | x8 | x2!8vb)! x6 | x8 | x8 | x8 | %442
!8vb(! x2!8vb)! x6 |] %443
V:6
 x | x8 | x8 | x8 | x8 | x8 | x8 | x8 | x8 | x8 | x8 | x8 | x8 | x8 | x8 | x8 | x8 | x8 | x8 | x8 | %20
 x8 | x8 | x8 | x8 | x8 | x8 | x8 | x8 | x8 | x8 | x8 | x8 | x8 | x8 | x8 | x8 | x8 | x8 | x8 | %39
 x8 | x8 | x8 | x8 | x8 | x8 | x8 | x8 | x8 | x8 | x8 | x8 | x8 | x8 | x8 | x8 | z2 b!p!a ^gfeg | %56
 x8 | x8 | x8 | z2 b!p!a ^gfeg | x8 | x8 | x8 | x8 | x8 | x8 | x8 | x8 | x8 | x8 | x8 | %71
 z2 b!p!a ^gfeg | x8 | x8 | x8 | x8 | x8 | x8 | z2 .G2 .E2 .G2 | z2 .=F2 .D2 .F2 | x8 | x8 | x8 | %83
 x8 | x8 | x8 | x8 | x8 | x8 | x8 | x8 | x8 | x8 | x8 | x8 | x8 | x8 | x8 | x8 | x8 | x8 | x8 | %102
 x8 | x8 | x8 | x8 | x8 | x8 | x8 | x8 | x8 | x8 | x8 | x8 | x8 | x8 | x8 | x8 | x8 | x8 | x8 | %121
 x8 | x8 | x8 | x8 | x8 | x8 | x8 | x8 | x8 | x8 | x8 | x8 | x8 | x8 | x8 | x8 | x8 | x8 | x8 | %140
 x8 | x8 | x8 | x8 | x8 | x8 | x8 | x8 | x8 | x8 | x8 | x8 | x8 | x8 | x8 | x8 | x8 | x8 | x8 | %159
 x8 | x8 | x8 | x8 | x8 | x8 | x8 | x8 | x8 | x8 | x8 | x8 | x8 | x8 | x8 | x8 | x8 | x8 | x8 | %178
 x8 | x8 | x2!8va(! x6 | x2!8va)! x6 | x8 | x8 | x8 | x8 | x8 | x8 | x8 | x8 | x8 | x8 | x8 | x8 | %194
 x8 | x8 | x8 | x8 | x8 | x8 | x8 | x8 | x8 | x8 | x8 | x8 | x8 | x8 | x8 | x8 | x8 | x8 | x8 | %213
 x8 | x8 | x8 | x8 | x8 | x8 | x8 | A4 x4 | x8 | x8 | x8 | x8 | x8 | x8 | x8 | x8 | x8 | x8 | x8 | %232
 x8 | x8 | x8 | x8 | x8 | x8 | x8 | x2 .G2 .[A,E]2 .G2 | x8 | x8 | x8 | x2 .G2 .[A,E]2 .G2 | x8 | %245
 x8 | x8 | x8 | x8 | x8 | x8 | x8 | x8 | x8 | x8 | x2 .G2 .[A,E]2 .G2 | x8 | x8 | x8 | %259
 z2 .G2 .E2 .G2 | z2"_dim." .A2 .=F2 .A2 | x8 | x8 | x8 | x8 | x8 | z2 .A2 .=F2 .A2 | %267
 z2 .A2 .E2!f! .A2 | x8 | x8 | x8 | x8 | x8 | x8 | x8 | x8 | x8 | x8 | x8 | x8 | x8 | x8 | x8 | %283
 x8 | x8 | x8 | x8 | x8 | x8 | x8 | x8 | x8 | x8 | x8 | x8 | x8 | x8 | x8 | x8 | x8 | x8 | x8 | %302
 x8 | x8 | x8 | x8 | x8 | x8 | x8 | x8 | x8 | x8 | x8 | x8 | x8 | x8 | x8 | x8 | x8 | x8 | x8 | %321
 x4 !^!_B2 A2 | x4[K:bass] x4 | x8 |[K:treble] x8 | x8 | x8 | x8 | x8 | x8 | x8 | x8 | x8 | x8 | %334
 x8 | x8 | x8 | x8 | x8 | x8 | x8 | x8 | x8 | x8 | x8 | x8 | x8 | x8 | x8 | x8 | x8 | x8 | x8 | %353
 x8 | x8 | x8 | x8 | x8 | x8 | x8 | x8 | x8 | x8 | x8 | x8 | x8 | x8 | x8 | x8 | x8 | x8 | x8 | %372
 x8 | x8 | x8 | x2!8va(! x6 | x4!8va)! x4 | x8 | x8 | x2!8va(! x6 | x4!8va)! x4 | x8 | x8 | x8 | %384
 x8 | x8 | x8 | x8 | x8 | x8 | x8 | x8 | x8 | x8 | x8 | x8 | x8 | x8 | x8 | x8 |!8va(! x8 | x8 | %402
 x6!8va)! x2 | x8 | x3!8va(! x3!8va)! x2 | x8 | x3!8va(! x3!8va)! x2 | x8 | x3!8va(! x3!8va)! x2 | %409
 x7!8va(! x | x2!8va)! x5!8va(! x | x2!8va)! x5!8va(! x | x2!8va)! x5!8va(! x | x2!8va)! x6 | x8 | %415
 x8 | x8 | x8 | x8 | x8 | x8 | x8 | x8 | x8 | x8 | x8 | x8 | x8 | x8 | x8 | x8 | x8 | x8 | x8 | %434
 x8 | x8 | x8 | x8 | x8 | x8 | x8 | x8 | x8 |] %443

